X:774
T:Farewell To Skye
C:Joe Buchanan's Scottish Tome - Page 531.3
I:531 3
Z:Carl Allison
R:Slow Air
L:1/4
M:4/4
K:A
E | "A"E2 E | "D"F2 E | "A"E3- | "E7"E2 E | "A"E2c | "E7"e2 d | "A"c3- | c3 |
"C#7"(c2 B) | "F#m"A2 c | "C#m"E3 | "F#m"A3 | "Bm"B2 c | "E7"B2 A | "A"A3- | A2 |]

